X:4
T:Des profondeurs, je crie vers Toi - Z129
C:J. Glineau
M:1
L:1/4
K:Gm
z2D0|D4|D4|F4|z2F0|F4D0F0|G4|
w:Des~pro\-fon-deurs,~je~crie~vers toi,~Sei-gneur: -cou\-te mon ap-pel!
w:Si~tu~re-tiens~les fau\-tes~Sei-gneur, qui donc~sub-sis-te-ra
w:Mon \-me~at-tend~le~Sei-gneur,~je suis sr~de sa pa-ro\-le;
w:Puis\-qu'au-prs~du~Sei-gneur~est~la gr\-ce,~l'a-bon-dan\-ce du ra-chat,
z2G0|G4|G4|B4|z2B0|A4F0A0|A4|G4||
w:Que~ton~o-reil\-le~se fas\-se~at\-ten-ti\-ve au cri~de ma pri--re.
w:Mais~prs~de toi~se trou\-ve~le~par-don: je~te crains et j'es-p-re.
w:mon~\-me~at-tend~plus~su\-re-ment~le~Sei-gneur qu'un~veil-leur~n'at-tend l'au-ro-re.
w:c'est lui~qui~ra\-ch\-te-ra~Is\-ra-l de tou-tes se fau-tes.
M:4
D|GG/ F/ G/ A/ B/ A/|GA/ B/ c/ B/ A/ G/ |FAG:|
